_inc/systems/logos/auto-puzzle.svg

<?xml version="1.0" encoding="utf-8"?>
<svg viewBox="0 0 200 40" xmlns="http://www.w3.org/2000/svg">
  <path d="M 50.863 14.516 L 50.863 14.516 L 47.043 14.516 L 46.242 19.141 L 40.389 19.141 L 43.778 0 L 53.02 0 L 53.02 0 C 56.512 0 58.257 1.613 58.257 4.839 L 58.257 4.839 L 58.257 4.839 C 58.257 6.37 58.041 7.751 57.61 8.983 L 57.61 8.983 L 57.61 8.983 C 57.179 10.221 56.703 11.206 56.183 11.933 L 56.183 11.933 L 56.183 11.933 C 55.656 12.655 54.933 13.268 54.016 13.771 L 54.016 13.771 L 54.016 13.771 C 53.105 14.268 52.055 14.516 50.863 14.516 Z M 50.093 4.9 L 48.738 4.9 L 47.906 9.616 L 49.261 9.616 L 49.261 9.616 C 49.96 9.616 50.487 9.542 50.843 9.391 L 50.843 9.391 L 50.843 9.391 C 51.206 9.235 51.439 8.881 51.541 8.33 L 51.541 8.33 L 51.541 8.33 C 51.808 6.819 51.942 5.992 51.942 5.849 L 51.942 5.849 L 51.942 5.849 C 51.942 5.462 51.788 5.206 51.48 5.084 L 51.48 5.084 L 51.48 5.084 C 51.172 4.961 50.71 4.9 50.093 4.9 L 50.093 4.9 Z M 60.999 0 L 66.852 0 L 64.295 14.363 L 66.39 14.363 L 66.39 14.363 C 67.109 14.363 67.623 14.268 67.931 14.077 L 67.931 14.077 L 67.931 14.077 C 68.239 13.88 68.454 13.434 68.578 12.74 L 68.578 12.74 L 70.858 0 L 76.711 0 L 74.801 10.749 L 74.801 10.749 C 74.493 12.485 74.136 13.883 73.733 14.945 L 73.733 14.945 L 73.733 14.945 C 73.335 16.007 72.778 16.905 72.059 17.64 L 72.059 17.64 L 72.059 17.64 C 71.34 18.375 70.45 18.885 69.389 19.171 L 69.389 19.171 L 69.389 19.171 C 68.334 19.457 66.996 19.6 65.374 19.6 L 65.374 19.6 L 65.374 19.6 C 62.889 19.6 61.146 19.225 60.147 18.477 L 60.147 18.477 L 60.147 18.477 C 59.154 17.735 58.658 16.456 58.658 14.639 L 58.658 14.639 L 58.658 14.639 C 58.658 13.638 58.802 12.342 59.089 10.749 L 59.089 10.749 L 60.999 0 Z M 91.591 14.241 L 90.728 19.141 L 74.955 19.141 L 75.632 15.313 L 84.906 5.084 L 84.844 4.9 L 78.713 4.9 L 79.052 0 L 93.994 0 L 93.316 3.828 L 84.105 14.057 L 84.135 14.241 L 91.591 14.241 Z M 108.473 14.241 L 107.611 19.141 L 91.837 19.141 L 92.515 15.313 L 101.788 5.084 L 101.726 4.9 L 95.596 4.9 L 95.935 0 L 110.876 0 L 110.199 3.828 L 100.987 14.057 L 101.018 14.241 L 108.473 14.241 Z M 137.401 7.473 L 136.6 11.913 L 130.747 11.913 L 130.347 14.241 L 137.525 14.241 L 136.662 19.141 L 123.631 19.141 L 127.019 0 L 139.897 0 L 138.295 4.9 L 131.979 4.9 L 131.548 7.473 L 137.401 7.473 Z" style="white-space: pre; fill: rgb(255, 255, 255);"/>
  <path d="M 116.584 13.518 L 122.36 13.518 L 122.354 19.289 L 116.578 19.289 L 116.584 13.518 Z" style="fill: rgb(204, 204, 204);" transform="matrix(0.996034, 0.088971, -0.088971, 0.996034, 1.933225, -10.564228)"/>
  <path d="M 110.866 6.652 L 116.643 6.652 L 116.637 12.423 L 110.86 12.423 L 110.866 6.652 Z" style="fill: rgb(204, 204, 204);" transform="matrix(0.996034, 0.088971, -0.088971, 0.996034, 1.299675, -10.082765)"/>
  <path d="M 110.289 13.037 L 116.065 13.037 L 116.059 18.809 L 110.283 18.809 L 110.289 13.037 Z" style="fill: rgb(204, 204, 204);" transform="matrix(0.996034, 0.088971, -0.088971, 0.996034, 1.86551, -10.00606)"/>
  <path d="M 111.444 0.265 L 117.221 0.265 L 117.215 6.036 L 111.438 6.036 L 111.444 0.265 Z" style="fill: rgb(204, 204, 204);" transform="matrix(0.996034, 0.088971, -0.088971, 0.996034, 0.73371, -10.15952)"/>
  <path d="M 77.024 33.98 L 77.174 33.17 L 75.734 33.17 L 76.544 28.58 L 83.414 28.58 L 81.644 38.6 C 79.204 39.5 76.754 39.95 74.294 39.95 C 71.834 39.95 70.059 39.46 68.969 38.48 C 67.879 37.5 67.334 35.99 67.334 33.95 C 67.334 33.09 67.474 31.82 67.754 30.14 C 68.354 26.66 69.414 24.15 70.934 22.61 C 72.454 21.07 74.974 20.3 78.494 20.3 C 79.234 20.3 80.179 20.38 81.329 20.54 C 82.479 20.7 83.324 20.88 83.864 21.08 L 82.214 25.67 C 80.714 25.39 79.339 25.25 78.089 25.25 C 76.839 25.25 75.944 25.35 75.404 25.55 C 74.864 25.75 74.544 26.15 74.444 26.75 L 72.974 35.24 L 74.864 35.24 C 75.544 35.24 76.049 35.165 76.379 35.015 C 76.709 34.865 76.924 34.52 77.024 33.98 Z M 88.663 39.5 L 82.663 39.5 L 90.553 20.75 L 99.373 20.75 L 100.693 39.5 L 94.663 39.5 L 94.543 36.53 L 89.833 36.53 Z M 93.793 26.51 L 91.693 31.76 L 94.093 31.76 L 94.093 26.51 Z M 108.073 39.5 L 102.133 39.5 L 106.513 20.75 L 113.953 20.75 L 114.493 30.29 L 114.703 30.29 L 118.603 20.75 L 126.043 20.75 L 123.823 39.5 L 117.853 39.5 L 119.113 30.41 L 118.903 30.41 L 115.153 39.5 L 110.803 39.5 L 110.173 30.41 L 110.023 30.41 Z M 139.632 32.42 L 133.932 32.42 L 133.542 34.7 L 140.532 34.7 L 139.692 39.5 L 127.002 39.5 L 130.302 20.75 L 142.842 20.75 L 141.282 25.55 L 135.132 25.55 L 134.712 28.07 L 140.412 28.07 Z M 142.361 39.17 L 144.041 34.22 C 145.721 34.68 147.261 34.91 148.661 34.91 C 150.061 34.91 151.191 34.85 152.051 34.73 L 152.291 33.23 L 149.801 32.99 C 147.901 32.81 146.556 32.38 145.766 31.7 C 144.976 31.02 144.581 30.06 144.581 28.82 C 144.581 28.28 144.641 27.68 144.761 27.02 C 145.221 24.46 146.056 22.7 147.266 21.74 C 148.476 20.78 150.351 20.3 152.891 20.3 C 155.431 20.3 157.671 20.55 159.611 21.05 L 158.051 25.85 C 156.311 25.55 154.911 25.4 153.851 25.4 C 152.791 25.4 151.891 25.45 151.151 25.55 L 150.911 27.02 L 152.921 27.23 C 154.961 27.45 156.411 27.935 157.271 28.685 C 158.131 29.435 158.561 30.44 158.561 31.7 C 158.561 32.98 158.281 34.3 157.721 35.66 C 157.441 36.36 157.136 36.945 156.806 37.415 C 156.476 37.885 156.056 38.285 155.546 38.615 C 155.036 38.945 154.571 39.195 154.151 39.365 C 153.731 39.535 153.201 39.66 152.561 39.74 C 151.621 39.88 150.471 39.95 149.111 39.95 C 146.631 39.95 144.381 39.69 142.361 39.17 Z" style="white-space: pre; fill: rgb(255, 255, 255);"/>
</svg>

<svg xmlns="http://www.w3.org/2000/svg" viewBox="0 0 200 40"><path d="M50.86 14.52h-3.82l-.8 4.62H40.4L43.78 0h9.24q5.24 0 5.24 4.84 0 2.3-.65 4.14-.64 1.87-1.43 2.95a6.5 6.5 0 0 1-5.32 2.58M50.1 4.9h-1.35l-.83 4.72h1.35q1.05 0 1.58-.23.55-.23.7-1.06.4-2.27.4-2.48 0-.58-.46-.77-.45-.18-1.39-.18M61 0h5.86L64.3 14.36h2.09q1.08 0 1.54-.28.45-.3.65-1.34L70.86 0h5.85l-1.9 10.75q-.47 2.6-1.08 4.2a8 8 0 0 1-1.67 2.69 6 6 0 0 1-2.67 1.53q-1.59.43-4.02.43-3.72 0-5.22-1.12t-1.5-3.84q0-1.5.44-3.9zm30.6 14.24-.86 4.9H74.95l.68-3.83 9.28-10.23-.07-.18h-6.13l.34-4.9H94l-.67 3.83-9.21 10.23.03.18zm16.88 0-.86 4.9H91.84l.67-3.83 9.28-10.23-.06-.18H95.6l.34-4.9h14.94l-.68 3.83-9.21 10.23.03.18zm28.93-6.77-.8 4.44h-5.85l-.4 2.33h7.18l-.87 4.9h-13.03L127.02 0h12.88l-1.6 4.9h-6.32l-.43 2.57z" style="white-space:pre;fill:#fff"/><path d="M116.58 13.52h5.78v5.77h-5.78z" style="fill:#ccc" transform="rotate(5.1 119.47 16.4)"/><path d="M110.87 6.65h5.77v5.77h-5.78z" style="fill:#ccc" transform="rotate(5.1 113.75 9.54)"/><path d="M110.29 13.04h5.77v5.77h-5.78z" style="fill:#ccc" transform="rotate(5.1 113.17 15.92)"/><path d="M111.44.27h5.78v5.77h-5.78z" style="fill:#ccc" transform="rotate(5.1 114.33 3.15)"/><path d="m77.02 33.98.15-.81h-1.44l.81-4.59h6.87L81.64 38.6a21 21 0 0 1-7.35 1.35q-3.69 0-5.32-1.47-1.65-1.47-1.64-4.53 0-1.29.42-3.81.9-5.22 3.18-7.53t7.56-2.31q1.11 0 2.84.24t2.53.54l-1.65 4.59q-2.25-.42-4.12-.42a9 9 0 0 0-2.69.3q-.81.3-.96 1.2l-1.47 8.49h1.9q1.01 0 1.5-.23.5-.22.65-1.03m11.64 5.52h-6l7.9-18.75h8.81l1.32 18.75h-6.03l-.12-2.97h-4.7Zm5.13-12.99-2.1 5.25h2.4v-5.25Zm14.28 12.99h-5.94l4.38-18.75h7.44l.54 9.54h.21l3.9-9.54h7.44l-2.22 18.75h-5.97l1.26-9.09h-.2l-3.76 9.09h-4.35l-.63-9.09h-.15Zm31.56-7.08h-5.7l-.39 2.28h7l-.85 4.8H127l3.3-18.75h12.54l-1.56 4.8h-6.15l-.42 2.52h5.7Zm2.73 6.75 1.68-4.95q2.52.69 4.62.69t3.4-.18l.23-1.5-2.49-.24q-2.85-.27-4.03-1.29a3.6 3.6 0 0 1-1.19-2.88q0-.81.18-1.8.7-3.84 2.5-5.28 1.83-1.44 5.63-1.44 3.81 0 6.72.75l-1.56 4.8q-2.61-.45-4.2-.45t-2.7.15l-.24 1.47 2.01.21q3.07.33 4.35 1.45a3.8 3.8 0 0 1 1.3 3.02q0 1.92-.85 3.96-.42 1.05-.91 1.76-.5.69-1.26 1.2-.77.5-1.4.75-.63.24-1.59.37-1.41.21-3.45.21-3.72 0-6.75-.78" style="white-space:pre;fill:#fff"/></svg>
